X:200
T:La Promenade. RH.200
R:jig, fast
S:Rev.R.Harrison’s MS,c1815,Cumbria
N:Or is this a hornpipe? PJH.
O:England
A:Temple Sowerby,Cumbria
Z:vmp.Simon Wilson. Review PJH, 2008.
M:6/8
L:1/8
Q:3/8=135
K:D
d2a f2e|f2g f2e|d2a f2d|e2A d3:|\
|:e2f e2d|e2f e2d|d2e f2e|f2g a3|!
d2a d2e|f2g f2e|d2a f2d|e2A d3:|\
|:ded d2e|fgf e2d|d2A dgf|dec d3:|!
|:aba a3|ABA A3|gag g3|GAG G3|\
d2A d2e|fgf f2e|d2A dgf|edc d3:|

